X:1
T:The Dear Old Bible
T:Haldor Lillenas, 1917
T:The Dear Old Bible
T:Public Domain
T:Public Domain
T:Public Domain
C:Haldor Lillenas, 1917
Z:Public Domain
%%score ( 1 2 ) ( 3 4 )
L:1/8
M:4/4
K:Db
V:1 treble 
V:2 treble 
V:3 bass 
V:4 bass 
V:1
 (3[DF][DF][EG] | [FA]2 [FA]2 [GB][FA][DF][FA] | [Fd]2 [Gc]2 [Gc]2 (3[CE][CE][DF] | %3
w: 1.~Give me the|dear old Bi- ble as my|guide each day, Be it my|
w: 2.~Give me the|dear old Bi- ble as my|teach- er true, Pre- cious the|
w: 3.~Give me the|dear old Bi- ble as a|shin- ing light, That will il-|
w: 4.~Give me the|dear old Bi- ble when my|life shall end, When in the|
 [CG]2 [CG]2 [CG][CE][DF][EG] | [GB]2 [FA]2 [FA]2 (3[DF][DF][EG] | [FA]2 [FA]2 [GB][FA][DF][FA] | %6
w: help and com- fort on my|pil- grim way, Un- til the|gates of glo- ry I at|
w: words of prom- ise, old, yet|ev- er new; On ev- ery|page the love of God I|
w: lum- ine me and guide my|steps a- right, Be it my|sword to drive a- way the|
w: vale of sha- dow it will|com- fort lend; It shall en-|dure for time and all e-|
 [Fd]2 [Ac]2 [GB][GB][G=A][GB] | [=Ge] [Ge]2 [Gf] [Ge][Bd][Ac][GB] | (A4- [GA]2) z2 |: %9
w: last shall see, The dear old|Bi- ble is good e- nough for|me. *|
w: plain- ly see, The dear old|Bi- ble is good e- nough for|me. *|
w: en- e- my, The dear old|Bi- ble is good e- nough for|me. *|
w: ter- ni- ty, The dear old|Bi- ble is good e- nough for|me. *|
"^Refrain" [FA]>[EG] [DF][FA] [Fd]4 | [GB]>[GA] G[GB] [Ge][Gd][Gd][Gd] | %11
w: ||
w: e- nough for me, good|e- nough for me, The dear old Bi-|
w: ||
w: ||
 [Gc] [Gc]2 [GB] [GA][GB][EA][EG] | (DDDD D2) z2 :| [GA][GA][GB][Gc] | FFGG [Fd]2 |] %15
w: ||||
w: is good e- nough for me. good|e- * * * *|for me. * *||
w: ||||
w: ||||
V:2
 x2 | x8 | x8 | x8 | x8 | x8 | x8 | x8 | A4 x4 |: x8 | x2 G x5 | x8 | F6 x2 :| x4 | d4- x2 |] %15
w: |||||||||||||||
w: ||||||||Good||ble||nough|||
V:3
 (3[D,A,][D,A,][D,A,] | [D,D]2 [D,D]2 [D,D][D,D][D,A,][D,A,] | %2
w: ~ ~ ~|~ ~ ~ ~ ~ ~|
 [D,A,]2 [E,A,]2 [E,A,]2 (3[A,,A,][A,,A,][A,,A,] | [A,,E,]2 [A,,E,]2 [A,,A,][A,,A,][A,,A,][A,,A,] | %4
w: ~ ~ ~ ~ ~ ~|~ ~ ~ ~ ~ ~|
 [C,A,]2 [D,A,]2 [D,D]2 (3[D,A,][D,A,][D,A,] | [D,D]2 [D,D]2 [D,D][D,D][D,A,][D,A,] | %6
w: ~ ~ ~ ~ ~ ~|~ ~ ~ ~ ~ ~|
 [D,A,]2 [F,D]2 [G,D][G,D][G,C][G,D] | [E,E] [E,B,]2 [E,B,] [E,B,][E,F][E,E][E,D] | %8
w: ~ ~ ~ ~ ~ ~|~ ~ ~ ~ ~ ~ ~|
 ([A,,-A,C-][A,,-B,C-][A,,C]-[A,,B,C] A,G,F,E,) |: [D,A,]>[D,A,] [D,A,][D,A,] [D,A,]2 [D,D]2 | %10
w: ~ * * * * * * *|~ ~ ~ ~ ~ yes|
 [G,D]>[G,C] [G,B,][G,D] [G,B,][G,B,][G,B,][G,B,] | [A,E] [A,E]2 [A,D] [A,C][A,C][C,A,][C,A,] | %12
w: ~ ~ ~ ~ ~ ~ ~ ~|~ ~ ~ ~ ~ ~ is|
 A,A,A,A, A,2 z2 :| [A,C][A,C][A,,A,][A,,A,] | A,A,B,B, [D,A,]2 |] %15
w: good e- nough for me,|~ ~ is good|e- nough for~me. * *|
V:4
 x2 | x8 | x8 | x8 | x8 | x8 | x8 | x8 | x8 |: x8 | x8 | x8 | D,6 x2 :| x4 | D,4- x2 |] %15
w: ||||||||||||~|||

